src/assets/custom/img/blog/2016-05-25-haskell.svg

<svg height="340.1574pt" viewBox="0 0 481.8897 340.1574" width="481.8897pt" xmlns="http://www.w3.org/2000/svg" xmlns:xlink="http://www.w3.org/1999/xlink"><clipPath id="a"><path d="m0 340.15625h481.890625v-340.15625h-481.890625zm0 0"/></clipPath><g clip-path="url(#a)"><path d="m0 340.15625 113.386719-170.078125-113.386719-170.078125h85.039062l113.386719 170.078125-113.386719 170.078125zm0 0" fill="#7f7f7f"/><path d="m113.386719 340.15625 113.386719-170.078125-113.386719-170.078125h85.039062l226.769531 340.15625h-85.039062l-70.863281-106.296875-70.867188 106.296875zm0 0" fill="#b3b3b3"/><g fill="#7f7f7f"><path d="m387.402344 240.945312-37.792969-56.691406 132.28125-.003906v56.695312zm0 0"/><path d="m330.710938 155.90625-37.796876-56.691406 188.976563-.003906v56.695312zm0 0"/></g></g></svg>

<?xml version="1.0" encoding="UTF-8"?>
<svg xmlns="http://www.w3.org/2000/svg" xmlns:xlink="http://www.w3.org/1999/xlink" width="481.8897pt" height="340.1574pt" viewBox="0 0 481.8897 340.1574" version="1.1">
<defs>
<clipPath id="clip1">
  <path d="M 0 340.15625 L 481.890625 340.15625 L 481.890625 0 L 0 0 L 0 340.15625 Z M 0 340.15625 "/>
</clipPath>
</defs>
<g id="surface0">
<g clip-path="url(#clip1)" clip-rule="nonzero">
<path style=" stroke:none;fill-rule: nonzero; fill: rgb(50%,50%,50%); fill-opacity: 1;" d="M 0 340.15625 L 113.386719 170.078125 L 0 0 L 85.039062 0 L 198.425781 170.078125 L 85.039062 340.15625 L 0 340.15625 Z M 0 340.15625 "/>
<path style=" stroke:none;fill-rule: nonzero; fill: rgb(70%,70%,70%); fill-opacity: 1;" d="M 113.386719 340.15625 L 226.773438 170.078125 L 113.386719 0 L 198.425781 0 L 425.195312 340.15625 L 340.15625 340.15625 L 269.292969 233.859375 L 198.425781 340.15625 L 113.386719 340.15625 Z M 113.386719 340.15625 "/>
<path style=" stroke:none;fill-rule: nonzero; fill: rgb(50%,50%,50%); fill-opacity: 1;" d="M 387.402344 240.945312 L 349.609375 184.253906 L 481.890625 184.25 L 481.890625 240.945312 L 387.402344 240.945312 Z M 387.402344 240.945312 "/>
<path style=" stroke:none;fill-rule: nonzero; fill: rgb(50%,50%,50%); fill-opacity: 1;" d="M 330.710938 155.90625 L 292.914062 99.214844 L 481.890625 99.210938 L 481.890625 155.90625 L 330.710938 155.90625 Z M 330.710938 155.90625 "/>
</g>
</g>
</svg>
